icons/stack-overflow-fill.svg

<svg xmlns="http://www.w3.org/2000/svg" width="24" height="24" fill="none"><g clip-path="url(#a)"><g><path fill="#121212" d="M18 20.002V14.67H20V22.003H4V14.67H6V20.003H18V20.002ZM7.599 14.736L7.912 12.756L16.749 14.456L16.636 16.042L7.599 14.736ZM8.799 10.204L9.531 8.60401L17.529 12.337L16.796 13.936L8.798 10.204H8.799ZM11.064 6.27201L12.197 4.93901L18.995 10.604L17.862 11.937L11.064 6.27201ZM15.396 2.14001L20.661 9.20401L19.261 10.271L13.997 3.20601L15.397 2.14001H15.396ZM7.332 18.668V16.668H16.662V18.668H7.332Z"/></g></g><defs><clipPath id="a"><rect width="24" height="24" fill="white"/></clipPath></defs></svg>

<svg width="24" height="24" fill="none" xmlns="http://www.w3.org/2000/svg"><g clip-path="url(#a)"><path d="M18 20.002V14.67h2v7.333H4V14.67h2v5.333h12v-.001ZM7.599 14.736l.313-1.98 8.837 1.7-.113 1.586-9.037-1.306Zm1.2-4.532.732-1.6 7.998 3.733-.733 1.599-7.998-3.732h.001Zm2.265-3.932 1.133-1.333 6.798 5.665-1.133 1.333-6.798-5.665Zm4.332-4.132 5.265 7.064-1.4 1.067-5.264-7.065 1.4-1.066h-.001ZM7.332 18.668v-2h9.33v2h-9.33Z" /></g><defs><clipPath id="a"><path fill="#fff" d="M0 0h24v24H0z"/></clipPath></defs></svg>
